X:1
T:The Way, the Truth and the Life
T:The Way, the Truth and the Life
T:Samuel William Beazley
T:C. H. Ogborn, 1908
T:Public Domain Courtesy of the Cyber Hymnal™
T:Public Domain Courtesy of the Cyber Hymnal™
C:Samuel William Beazley
Z:Public Domain
Z:Courtesy of the Cyber Hymnal™
%%score ( 1 2 ) ( 3 4 )
L:1/8
Q:1/4=96
M:4/4
K:Ab
V:1 treble 
V:2 treble 
V:3 bass 
V:4 bass 
V:1
 [Ec][DB] | [CA]2 [Ec]2 [CE]3 [CE] | [DF]>[EG] [FA]>[FB] [Ec]2 [Ec]>[Fd] | %3
w: 1.~Je- sus|is the Way, the|way that leads to God; If we|
w: 2.~Je- sus|is the Truth, the|truth that makes us free; Free from|
w: 3.~Je- sus|is the Life, e-|ter- nal life He gives; His Spir-|
 [Ec][EB][EB][EB] [EB]2 [EB]>[Ec] | [DB][CA][CA][CA] [CA]2 [Ec][DB] | [CA]2 [Ec]2 [CE]3 [CE] | %6
w: fol- low in His foot- steps the|path that He has trod, He will|lead us in the|
w: sick- ness, sin and sor- row, thro’|all e- ter- ni- ty. He will|guide us safe- ly|
w: it bears us wit- ness that our|ris- en Sav- ior lives; If we|love and serve Him|
 [DF]>[EG] [FA]>[FB] [Ec]2 [Ec]2 | [EB]>[EB] [EB][EB] [Ge]>[Ge] [EG][EG] | %8
w: way of peace and love, And|safe- ly bring us to Him in our|
w: in the nar- row way, And|keep us on our jour- ney to the|
w: in this world of woe, He’ll|keep us by His grace and love to|
 [=DB]>[DA] [DG][DF] !fermata!E2 || (!fermata!ed)"^Refrain" | [Ac][Ac][Ac][Ac] [Ac]3 [EA] | %11
w: home pre- pared a- bove.|||
w: land of end- less day.|Oh, *|Je- sus is the Way, the|
w: con- quer ev- ery foe.|||
 [FB]2 [FA]>[DF] [CE]2 [CA]2 | [EB][EB][EB][Ec] [Ed]2 [Ec]2 | [EB]6 (!fermata!ed) | %14
w: |||
w: Truth and the Life, He|bids us come to Him and|rest; He *|
w: |||
 [Ac][Ac][Ac][Ac] [Ac]2 [EA][EA] | [FB]2 [Fc]2 !fermata![Fd]2 [Fd]2 | %16
w: ||
w: bids us share with Him, free from|toil and strife, A|
w: ||
 [Ec]2 [CE]>[Ec] [DB]2 [DE]>[DB] | [CA]6 |] %18
w: ||
w: home in the land of the|blest.|
w: ||
V:2
 x2 | x8 | x8 | x8 | x8 | x8 | x8 | x8 | x4 E2 || G2 | x8 | x8 | x8 | x6 G2 | x8 | x8 | x8 | x6 |] %18
V:3
 [A,,A,][A,,A,] | [A,,A,]2 [A,,A,]2 [A,,A,]3 [A,,A,] | %2
 [D,A,]>[D,A,] [D,A,]>[D,A,] [A,,A,]2 [A,,A,]>[A,,A,] | %3
 [E,A,][E,G,][E,G,][E,G,] [E,G,]2 [E,G,]>[E,A,] | %4
 [A,,A,][A,,E,][A,,E,][A,,E,] [A,,E,]2 [A,,A,][A,,A,] | [A,,A,]2 [A,,A,]2 [A,,A,]3 [A,,A,] | %6
 [D,A,]>[D,A,] [D,A,]>[D,A,] [A,,A,]2 [A,,A,]2 | %7
 [E,G,]>[E,G,] [E,G,][E,G,] [E,B,]>[E,B,] [E,B,][E,B,] | %8
 [B,,B,]>[B,,B,] [B,,B,][B,,B,] !fermata![E,G,]2 || (!fermata!B,E) | EEEE [A,E]3 [A,C] | %11
 [D,D]2 [D,D]>[D,A,] [A,,A,]2 [A,,A,]2 | [E,G,][E,G,][E,G,][E,A,] [E,B,]2 [E,A,]2 | %13
 [E,G,]6 (!fermata!B,E) | [A,E][A,E][A,E][A,E] [A,E]2 [C,A,][C,A,] | %15
 [D,A,]2 [C,=A,]2 !fermata![B,,A,]2 [B,,F,]2 | [E,A,]2 [E,A,]>[E,A,] [E,G,]2 [E,G,]>E, | %17
 [A,,E,]6 |] %18
V:4
 x2 | x8 | x8 | x8 | x8 | x8 | x8 | x8 | x6 || E,2 | x8 | x8 | x8 | x6 E,2 | x8 | x8 | x15/2 E,/ | %17
 x6 |] %18

